X:1
T:Title
%%score 1 2
L:1/8
Q:1/4=90
M:4/4
K:E
V:1 treble nm="Strings 1, Soprano"
V:2 bass nm="Strings 1, Bass"
V:1
 [EG]>[EF] E>[EF] [EG]2 [EA]2 | [EG]4 [B,E]4 | [DF]>[CE] [B,D]>[CE] [DF]2 [Dc]2 | [EB]4 [EG]4 | %4
w: 1.~Lean ing~ on~ the~ arms~ of~|Je sus,~|Oh,~ it~ is~ so~ sweet~ and~|pre cious!~|
 [EG]>[EF] E>[EF] [EG]2 [EA]2 | [EG]4 [B,E]4 | [CF]>[CE] [CF]>[EA] [EG]2 [DF]2 | E6 z2 | %8
w: He~ will~ sure ly~ bless~ and~|keep~ us,~|Calm ly~ rest ing~ free~ from~|care.~|
 [EG]4 [B,E]4 | [GB]4 [EG]4 | [EG]>[B,F] [B,E]>[B,F] [EG]2 E2 | [DF]4 [DB]2 [FA]2 | %12
w: ||||
 [EG]4 [B,E]2 [EB]2 | [Ec]4 [Ee]4[Q:1/4=12] |[Q:1/4=90] [CE]>[CD] [CE]>[DF] [EG]2 E2 | %15
w: |||
 [DF]4 [B,E]4 |] %16
w: |
V:2
 [E,B,]>[E,A,] [E,G,]>[E,A,] [E,B,]2 [E,C]2 | [E,B,]4 [E,G,]4 | %2
 [B,,B,]>[B,,B,] [B,,B,]>[B,,B,] [B,,B,]2 [B,,A,]2 | [E,G,]4 [E,B,]4 | %4
 [E,B,]>[E,A,] [E,G,]>[E,A,] [E,B,]2 [E,C]2 | [E,B,]4 [E,G,]4 | %6
 [A,,A,]>[A,,A,] [A,,A,]>[A,,C] [B,,B,]2 [B,,A,]2 | [E,G,]6 z2 | %8
 [E,B,]>[E,B,] [E,B,]>[E,B,] [E,G,]2 [E,G,]2 | [E,E]>[E,E] [E,E]>[E,E] [E,B,]2 [E,B,]2 | %10
 [E,B,]>[E,A,] [E,G,]>[E,A,] [E,B,]2 [C,^A,]2 | [B,,B,]2 [B,,B,]2 [B,,B,]2 [D,B,]2 | %12
 [E,B,]>[E,B,] [E,B,]>[E,B,] [E,G,]2 [E,G,]2 | [A,,A,]>[A,,A,] [A,,A,]>[A,,A,] [A,,C]2 [A,,C]2 | %14
 [C,G,]>[C,=G,] [C,^G,]>[C,^A,] [B,,B,]2 [B,,G,]2 | [B,,A,]4 [E,,E,G,]4 |] %16

